; generated by PrusaSlicer 2.9.2 on 2025-08-08 at 06:34:24 UTC

; 

; external perimeters extrusion width = 0.45mm
; perimeters extrusion width = 0.45mm
; infill extrusion width = 0.45mm
; solid infill extrusion width = 0.45mm
; top infill extrusion width = 0.40mm
; first layer extrusion width = 0.70mm

M104 S200 ; set temperature
;TYPE:Custom
G28 ; home all axes
G1 Z5 F5000 ; lift nozzle
M109 S200 ; set temperature and wait for it to be reached
G21 ; set units to millimeters
G90 ; use absolute coordinates
M82 ; use absolute distances for extrusion
G92 E0
; Filament gcode
M107
;LAYER_CHANGE
;Z:0.35
;HEIGHT:0.35
G1 E-2 F2400
G92 E0
G1 Z.35 F7800
G1 X46.45 Y70.285
G1 E2 F2400
;TYPE:Skirt/Brim
;WIDTH:0.7
G1 F1800
G1 X48.084 Y69.302 E2.17339
G1 X49.917 Y68.776 E2.34679
G1 X51 Y68.688 E2.44559
G1 X149 Y68.688 E11.35669
G1 X149.824 Y68.742 E11.43178
G1 X151.674 Y69.202 E11.60512
G1 X153.55 Y70.285 E11.80209
G1 X154.715 Y71.45 E11.9519
G1 X155.698 Y73.084 E12.12529
G1 X156.224 Y74.917 E12.29869
G1 X156.312 Y76 E12.39749
G1 X156.312 Y89 E13.57957
G1 X156.258 Y89.824 E13.65466
G1 X155.798 Y91.675 E13.82809
G1 X154.874 Y93.343 E14.00148
G1 X153.962 Y94.37 E14.12637
G1 X115.574 Y129.406 E18.85222
G1 X114.739 Y130.054 E18.94833
G1 X113.381 Y130.776 E19.08818
G1 X111.66 Y131.236 E19.25016
G1 X110.649 Y131.312 E19.34235
G1 X89.351 Y131.312 E21.27897
G1 X88.34 Y131.236 E21.37116
G1 X86.847 Y130.864 E21.51107
G1 X85.261 Y130.054 E21.673
G1 X84.426 Y129.406 E21.76911
G1 X46.038 Y94.37 E26.49496
G1 X45.126 Y93.343 E26.61985
G1 X44.302 Y91.916 E26.76969
G1 X43.776 Y90.083 E26.94309
G1 X43.688 Y89 E27.04189
G1 X43.688 Y76 E28.22397
G1 X43.776 Y74.917 E28.32277
G1 X44.202 Y73.325 E28.47262
G1 X45.126 Y71.657 E28.64601
G1 X46.408 Y70.328 E28.81392
G1 E26.81392 F2400
G92 E0
G92 E0
G1 X103.345 Y111.141 F7800
G1 E2 F2400
;TYPE:Perimeter
;WIDTH:0.7
G1 F1800
G1 X103.371 Y111.121 E2.00298
G1 X103.599 Y110.817 E2.03753
G1 X103.771 Y110.376 E2.08057
G1 X103.808 Y110.038 E2.11149
G1 X103.808 Y89.962 E3.93699
G1 X103.788 Y89.717 E3.95934
G1 X103.643 Y89.263 E4.00268
G1 X103.412 Y88.923 E4.04006
G1 X103.044 Y88.62 E4.08341
G1 X102.592 Y88.439 E4.12768
G1 X102.246 Y88.4 E4.15934
G1 X100.514 Y88.4 E4.31683
G1 X100.514 Y76.6 E5.3898
G1 X148.4 Y76.602 E9.74405
G1 X148.4 Y88.4 E10.81684
G1 X141.977 Y88.4 E11.40088
G1 X142.47 Y88.138 E11.45165
G1 X142.973 Y87.685 E11.5132
G1 X143.342 Y87.117 E11.57479
G1 X143.551 Y86.473 E11.63636
G1 X143.6 Y86.002 E11.67942
G1 X143.6 Y82.998 E11.95257
G1 X143.551 Y82.527 E11.99563
G1 X143.342 Y81.883 E12.0572
G1 X143.044 Y81.407 E12.10826
G1 X142.685 Y81.027 E12.15579
G1 X142.117 Y80.658 E12.21738
G1 X141.473 Y80.449 E12.27895
G1 X141.003 Y80.4 E12.32192
G1 X127.698 Y80.4 E13.53174
G1 X127.508 Y80.412 E13.54905
G1 X126.889 Y80.535 E13.60644
G1 X126.317 Y80.804 E13.66392
G1 X125.827 Y81.204 E13.72144
G1 X125.448 Y81.71 E13.77893
G1 X125.258 Y82.109 E13.81911
G1 X110.229 Y123.4 E17.81465
G1 X100.514 Y123.4 E18.69803
G1 X100.514 Y111.6 E19.771
G1 X102.246 Y111.6 E19.92849
G1 X102.555 Y111.569 E19.95673
G1 X102.981 Y111.416 E19.99789
G1 X103.297 Y111.177 E20.03392
G1 X102.9 Y110.693 F7800
G1 F1800
G1 X102.986 Y110.612 E20.04466
G1 X103.126 Y110.358 E20.07103
G1 X103.183 Y110.038 E20.10059
G1 X103.183 Y89.962 E21.92609
G1 X103.18 Y89.888 E21.93282
G1 X103.084 Y89.543 E21.96538
G1 X102.883 Y89.275 E21.99584
G1 X102.609 Y89.098 E22.0255
G1 X102.246 Y89.025 E22.05917
G1 X99.889 Y89.025 E22.27349
G1 X99.889 Y75.975 E23.46012
G1 X148.932 Y75.977 E27.91958
G1 X149.002 Y75.984 E27.92598
G1 X149.025 Y76.07 E27.93407
G1 X149.025 Y88.93 E29.10342
G1 X149.016 Y89.002 E29.11002
G1 X148.936 Y89.025 E29.11759
G1 X140.998 Y89.016 E29.83939
G1 X140.975 Y88.93 E29.84748
G1 X140.984 Y87.998 E29.93223
G1 X141.627 Y87.868 E29.99188
G1 X142.09 Y87.642 E30.03873
G1 X142.478 Y87.305 E30.08546
G1 X142.765 Y86.878 E30.13224
G1 X142.932 Y86.391 E30.17905
G1 X142.975 Y86.002 E30.21464
G1 X142.975 Y82.998 E30.48779
G1 X142.967 Y82.875 E30.499
G1 X142.868 Y82.373 E30.54553
G1 X142.642 Y81.91 E30.59238
G1 X142.305 Y81.522 E30.63911
G1 X141.878 Y81.235 E30.68589
G1 X141.391 Y81.068 E30.7327
G1 X141.002 Y81.025 E30.76829
G1 X127.698 Y81.025 E31.97802
G1 X127.335 Y81.063 E32.01121
G1 X126.877 Y81.209 E32.05492
G1 X126.468 Y81.461 E32.0986
G1 X126.132 Y81.805 E32.14232
G1 X125.845 Y82.322 E32.19609
G1 X110.665 Y124.008 E36.23008
G1 X110.589 Y124.025 E36.23716
G1 X99.889 Y124.025 E37.21011
G1 X99.889 Y110.975 E38.39674
G1 X102.246 Y110.975 E38.61106
G1 X102.431 Y110.956 E38.62797
G1 X102.773 Y110.813 E38.66168
G1 X102.857 Y110.734 E38.67217
G1 X102.459 Y110.254 F7800
;TYPE:External perimeter
G1 F1800
G1 X102.493 Y110.229 E38.67601
G1 X102.558 Y110.038 E38.69436
G1 X102.558 Y89.962 E40.51986
G1 X102.549 Y89.89 E40.52646
G1 X102.434 Y89.713 E40.54565
G1 X102.246 Y89.65 E40.56368
G1 X99.264 Y89.65 E40.83483
G1 X99.264 Y75.35 E42.13512
G1 X148.932 Y75.352 E46.65141
G1 X149.167 Y75.375 E46.67288
G1 X149.457 Y75.543 E46.70335
G1 X149.593 Y75.755 E46.72625
G1 X149.65 Y76.07 E46.75536
G1 X149.65 Y88.977 E47.92899
G1 X149.56 Y89.323 E47.9615
G1 X149.323 Y89.56 E47.99198
G1 X148.977 Y89.65 E48.02449
G1 X141.023 Y89.65 E48.74774
G1 X140.677 Y89.56 E48.78025
G1 X140.44 Y89.323 E48.81073
G1 X140.35 Y88.977 E48.84324
G1 X140.375 Y87.833 E48.94729
G1 X140.543 Y87.543 E48.97776
G1 X140.755 Y87.407 E49.00066
G1 X141.309 Y87.312 E49.05177
G1 X141.639 Y87.187 E49.08386
G1 X141.924 Y86.982 E49.11578
G1 X142.147 Y86.709 E49.14783
G1 X142.291 Y86.388 E49.17982
G1 X142.35 Y86.002 E49.21533
G1 X142.35 Y82.998 E49.48848
G1 X142.312 Y82.691 E49.51661
G1 X142.187 Y82.361 E49.5487
G1 X141.982 Y82.076 E49.58062
G1 X141.709 Y81.853 E49.61267
G1 X141.388 Y81.709 E49.64466
G1 X141.002 Y81.65 E49.68017
G1 X127.698 Y81.65 E50.8899
G1 X127.411 Y81.683 E50.91617
G1 X127.101 Y81.792 E50.94605
G1 X126.827 Y81.973 E50.97591
G1 X126.604 Y82.215 E51.00583
G1 X126.432 Y82.536 E51.03894
G1 X111.283 Y124.159 E55.06658
G1 X111.186 Y124.362 E55.08704
G1 X110.953 Y124.572 E55.11556
G1 X110.628 Y124.65 E55.14595
G1 X99.264 Y124.65 E56.17927
G1 X99.264 Y110.35 E57.47956
G1 X102.246 Y110.35 E57.75071
G1 X102.356 Y110.33 E57.76088
G1 X102.411 Y110.289 E57.76712
G1 X102.547 Y109.913 F7800
G1 E55.76712 F2400
G92 E0
G1 X100.863 Y113.161 F7800
G1 E2 F2400
;TYPE:Internal infill
;WIDTH:0.7
G1 F1800
G1 X100.863 Y115.474 E2.21032
G1 X101.196 Y116.136 E2.2777
G1 X101.297 Y116.757 E2.33491
G1 X101.261 Y117.378 E2.39147
G1 X101.099 Y117.998 E2.44974
G1 X100.863 Y118.468 E2.49756
G1 X100.863 Y120.782 E2.70797
G1 E.70797 F2400
G92 E0
G1 X112.817 Y115.27 F7800
G1 E2 F2400
G1 F1800
G1 X113.608 Y113.096 E2.21036
G1 X113.634 Y112.413 E2.27251
G1 X113.796 Y111.792 E2.33087
G1 X114.108 Y111.171 E2.39406
G1 X114.472 Y110.724 E2.44648
G1 X115.934 Y106.706 E2.83527
G1 X115.682 Y106.206 E2.88618
G1 X115.178 Y105.586 E2.95883
G1 X113.996 Y104.344 E3.11473
G1 X113.699 Y103.724 E3.17724
G1 X113.598 Y103.103 E3.23445
G1 X113.634 Y102.483 E3.29092
G1 X113.796 Y101.862 E3.34928
G1 X114.108 Y101.241 E3.41247
G1 X114.612 Y100.621 E3.48512
G1 X115.794 Y99.379 E3.64102
G1 X116.09 Y98.759 E3.70349
G1 X116.192 Y98.138 E3.76071
G1 X116.156 Y97.518 E3.81718
G1 X115.994 Y96.897 E3.87554
G1 X115.682 Y96.276 E3.93873
G1 X115.178 Y95.656 E4.01138
G1 X113.996 Y94.414 E4.16728
G1 X113.699 Y93.794 E4.22979
G1 X113.598 Y93.173 E4.287
G1 X113.634 Y92.553 E4.34347
G1 X113.796 Y91.932 E4.40183
G1 X114.108 Y91.311 E4.46502
G1 X114.612 Y90.691 E4.53767
G1 X115.794 Y89.449 E4.69357
G1 X116.09 Y88.829 E4.75604
G1 X116.192 Y88.208 E4.81326
G1 X116.156 Y87.588 E4.86973
G1 X115.994 Y86.967 E4.92809
G1 X115.682 Y86.346 E4.99128
G1 X115.178 Y85.726 E5.06393
G1 X113.996 Y84.484 E5.21983
G1 X113.699 Y83.864 E5.28234
G1 X113.598 Y83.243 E5.33955
G1 X113.634 Y82.623 E5.39602
G1 X113.796 Y82.002 E5.45438
G1 X114.108 Y81.381 E5.51757
G1 X114.612 Y80.761 E5.59022
G1 X115.794 Y79.519 E5.74612
G1 X116.09 Y78.899 E5.80859
G1 X116.192 Y78.278 E5.86581
G1 X116.156 Y77.658 E5.92228
G1 X115.95 Y76.949 E5.98942
G1 X111.213 Y76.949 E6.42015
G1 X111.191 Y77.658 E6.48465
G1 X111.029 Y78.278 E6.54292
G1 X110.717 Y78.899 E6.60611
G1 X110.213 Y79.519 E6.67876
G1 X109.031 Y80.761 E6.83466
G1 X108.734 Y81.381 E6.89717
G1 X108.633 Y82.002 E6.95438
G1 X108.669 Y82.623 E7.01094
G1 X108.831 Y83.243 E7.06921
G1 X109.143 Y83.864 E7.1324
G1 X109.647 Y84.484 E7.20505
G1 X110.829 Y85.726 E7.36095
G1 X111.125 Y86.346 E7.42342
G1 X111.227 Y86.967 E7.48064
G1 X111.191 Y87.588 E7.5372
G1 X111.029 Y88.208 E7.59547
G1 X110.717 Y88.829 E7.65866
G1 X110.213 Y89.449 E7.73131
G1 X109.031 Y90.691 E7.88721
G1 X108.734 Y91.311 E7.94972
G1 X108.633 Y91.932 E8.00693
G1 X108.669 Y92.553 E8.06349
G1 X108.831 Y93.173 E8.12176
G1 X109.143 Y93.794 E8.18495
G1 X109.647 Y94.414 E8.2576
G1 X110.829 Y95.656 E8.4135
G1 X111.125 Y96.276 E8.47597
G1 X111.227 Y96.897 E8.53319
G1 X111.191 Y97.518 E8.58975
G1 X111.029 Y98.138 E8.64802
G1 X110.717 Y98.759 E8.71121
G1 X110.213 Y99.379 E8.78386
G1 X109.031 Y100.621 E8.93976
G1 X108.734 Y101.241 E9.00227
G1 X108.633 Y101.862 E9.05948
G1 X108.669 Y102.483 E9.11604
G1 X108.831 Y103.103 E9.17431
G1 X109.143 Y103.724 E9.2375
G1 X109.647 Y104.344 E9.31015
G1 X110.829 Y105.586 E9.46605
G1 X111.125 Y106.206 E9.52852
G1 X111.227 Y106.827 E9.58574
G1 X111.191 Y107.448 E9.6423
G1 X111.029 Y108.068 E9.70057
G1 X110.717 Y108.689 E9.76376
G1 X110.213 Y109.309 E9.83641
G1 X109.031 Y110.551 E9.99231
G1 X108.734 Y111.171 E10.05482
G1 X108.633 Y111.792 E10.11203
G1 X108.669 Y112.413 E10.16859
G1 X108.831 Y113.033 E10.22686
G1 X109.143 Y113.654 E10.29005
G1 X109.647 Y114.274 E10.3627
G1 X110.829 Y115.516 E10.5186
G1 X111.125 Y116.136 E10.58107
G1 X111.227 Y116.757 E10.63829
G1 X111.191 Y117.378 E10.69485
G1 X111.029 Y117.998 E10.75312
G1 X110.717 Y118.619 E10.81631
G1 X110.213 Y119.239 E10.88896
G1 X109.031 Y120.481 E11.04486
G1 X108.734 Y121.101 E11.10737
G1 X108.633 Y121.722 E11.16458
G1 X108.669 Y122.342 E11.22105
G1 X108.875 Y123.051 E11.28819
G1 X103.682 Y123.051 E11.76039
G1 X103.668 Y122.963 E11.76849
G1 X103.704 Y122.342 E11.82505
G1 X103.866 Y121.722 E11.88332
G1 X104.178 Y121.101 E11.94651
G1 X104.682 Y120.481 E12.01916
G1 X105.864 Y119.239 E12.17506
G1 X106.16 Y118.619 E12.23753
G1 X106.262 Y117.998 E12.29475
G1 X106.226 Y117.378 E12.35122
G1 X106.064 Y116.757 E12.40958
G1 X105.752 Y116.136 E12.47277
G1 X105.248 Y115.516 E12.54542
G1 X104.066 Y114.274 E12.70132
G1 X103.769 Y113.654 E12.76383
G1 X103.668 Y113.033 E12.82104
G1 X103.704 Y112.413 E12.87751
G1 X103.866 Y111.792 E12.93587
G1 X104.178 Y111.171 E12.99906
G1 X104.682 Y110.551 E13.07171
G1 X105.864 Y109.309 E13.22761
G1 X106.16 Y108.689 E13.29008
G1 X106.262 Y108.068 E13.3473
G1 X106.226 Y107.448 E13.40377
G1 X106.064 Y106.827 E13.46213
G1 X105.752 Y106.206 E13.52532
G1 X105.248 Y105.586 E13.59797
G1 X104.149 Y104.439 E13.74241
G1 X104.151 Y101.296 E14.0282
G1 X104.682 Y100.621 E14.10629
G1 X105.864 Y99.379 E14.26219
G1 X106.16 Y98.759 E14.32466
G1 X106.262 Y98.138 E14.38188
G1 X106.226 Y97.518 E14.43835
G1 X106.064 Y96.897 E14.49671
G1 X105.752 Y96.276 E14.5599
G1 X105.248 Y95.656 E14.63255
G1 X104.154 Y94.516 E14.77622
G1 X104.156 Y91.355 E15.06365
G1 X104.682 Y90.691 E15.14068
G1 X105.864 Y89.449 E15.29658
G1 X106.16 Y88.829 E15.35905
G1 X106.262 Y88.208 E15.41627
G1 X106.226 Y87.588 E15.47274
G1 X106.064 Y86.967 E15.5311
G1 X105.752 Y86.346 E15.59429
G1 X105.248 Y85.726 E15.66694
G1 X104.066 Y84.484 E15.82284
G1 X103.769 Y83.864 E15.88535
G1 X103.668 Y83.243 E15.94256
G1 X103.704 Y82.623 E15.99903
G1 X103.866 Y82.002 E16.05739
G1 X104.178 Y81.381 E16.12058
G1 X104.682 Y80.761 E16.19323
G1 X105.864 Y79.519 E16.34913
G1 X106.16 Y78.899 E16.4116
G1 X106.262 Y78.278 E16.46882
G1 X106.226 Y77.658 E16.52529
G1 X106.02 Y76.949 E16.59243
G1 X101.283 Y76.949 E17.02316
G1 X101.261 Y77.658 E17.08766
G1 X101.099 Y78.278 E17.14593
G1 X100.863 Y78.748 E17.19375
G1 X100.863 Y85.684 E17.82444
G1 X101.196 Y86.346 E17.89182
G1 X101.297 Y86.967 E17.94903
G1 X101.261 Y87.588 E18.00559
G1 X101.14 Y88.051 E18.0491
G1 X102.668 Y88.098 E18.18811
G1 X102.986 Y88.2 E18.21848
G1 X103.37 Y88.43 E18.25918
G1 E16.25918 F2400
G92 E0
G1 X119.4 Y97.183 F7800
G1 E2 F2400
G1 F1800
G1 X120.191 Y95.008 E2.21044
G1 X119.577 Y94.414 E2.28812
G1 X119.073 Y93.794 E2.36077
G1 X118.761 Y93.173 E2.42396
G1 X118.599 Y92.553 E2.48223
G1 X118.563 Y91.932 E2.53879
G1 X118.664 Y91.311 E2.596
G1 X118.961 Y90.691 E2.65851
G1 X120.143 Y89.449 E2.81441
G1 X120.647 Y88.829 E2.88706
G1 X120.959 Y88.208 E2.95025
G1 X121.121 Y87.588 E3.00852
G1 X121.157 Y86.967 E3.06508
G1 X121.055 Y86.346 E3.1223
G1 X120.759 Y85.726 E3.18477
G1 X119.577 Y84.484 E3.34067
G1 X119.073 Y83.864 E3.41332
G1 X118.761 Y83.243 E3.47651
G1 X118.599 Y82.623 E3.53478
G1 X118.563 Y82.002 E3.59134
G1 X118.664 Y81.381 E3.64855
G1 X118.961 Y80.761 E3.71106
G1 X120.143 Y79.519 E3.86696
G1 X120.647 Y78.899 E3.93961
G1 X120.959 Y78.278 E4.0028
G1 X121.121 Y77.658 E4.06107
G1 X121.143 Y76.95 E4.12548
G1 X125.88 Y76.95 E4.55621
G1 X125.924 Y77.037 E4.56508
G1 X126.086 Y77.658 E4.62344
G1 X126.122 Y78.278 E4.67991
G1 X126.02 Y78.899 E4.73713
G1 X125.724 Y79.519 E4.7996
G1 X124.542 Y80.761 E4.9555
G1 X124.038 Y81.381 E5.02815
G1 X123.726 Y82.002 E5.09134
G1 X123.564 Y82.623 E5.1497
G1 X123.528 Y83.243 E5.20617
G1 X123.629 Y83.864 E5.26338
G1 X123.994 Y84.562 E5.335
G1 X124.931 Y81.988 E5.58408
G1 X125.138 Y81.55 E5.62813
G1 X125.565 Y80.973 E5.6934
G1 X126.119 Y80.517 E5.75864
G1 X126.526 Y80.3 E5.80058
G1 X127.119 Y80.11 E5.8572
G1 X127.696 Y80.051 E5.90994
G1 X129.523 Y80.051 E6.07607
G1 X130.073 Y79.519 E6.14565
G1 X130.577 Y78.899 E6.2183
G1 X130.889 Y78.278 E6.28149
G1 X131.051 Y77.658 E6.33976
G1 X131.073 Y76.95 E6.40417
G1 X135.811 Y76.95 E6.83499
G1 X136.016 Y77.658 E6.90201
G1 X136.052 Y78.278 E6.95848
G1 X135.95 Y78.899 E7.0157
G1 X135.654 Y79.519 E7.07817
G1 X135.191 Y80.051 E7.1423
G1 X139.453 Y80.051 E7.52984
G1 X140.003 Y79.519 E7.59942
G1 X140.507 Y78.899 E7.67207
G1 X140.819 Y78.278 E7.73526
G1 X140.981 Y77.658 E7.79353
G1 X141.003 Y76.95 E7.85794
G1 X145.741 Y76.951 E8.28876
G1 X145.946 Y77.658 E8.3557
G1 X145.982 Y78.278 E8.41217
G1 X145.88 Y78.899 E8.46939
G1 X145.584 Y79.519 E8.53186
G1 X144.402 Y80.761 E8.68776
G1 X143.898 Y81.381 E8.76041
G1 X143.686 Y81.802 E8.80327
G1 X143.933 Y82.749 E8.89226
G1 X143.949 Y84.671 E9.06703
G1 X144.968 Y85.726 E9.2004
G1 X145.472 Y86.346 E9.27305
G1 X145.784 Y86.967 E9.33624
G1 X145.946 Y87.588 E9.3946
G1 X145.973 Y88.051 E9.43677
G1 X148.051 Y88.051 E9.62572
G1 X148.051 Y87.816 E9.64709
G1 E7.64709 F2400
G92 E0
G1 X96.651 Y91.637 F7800
G1 E2 F2400
;TYPE:Perimeter
;WIDTH:0.7
G1 F1800
G1 X96.673 Y91.665 E2.00324
G1 X97.015 Y91.914 E2.04171
G1 X97.443 Y92.068 E2.08307
G1 X97.754 Y92.1 E2.1115
G1 X99.486 Y92.1 E2.26899
G1 X99.486 Y93.831 E2.42639
G1 X99.486 Y107.9 E3.70568
G1 X97.754 Y107.9 E3.86317
G1 X97.41 Y107.939 E3.89465
G1 X96.958 Y108.118 E3.93886
G1 X96.705 Y108.305 E3.96747
G1 X96.455 Y108.595 E4.00229
G1 X96.266 Y108.987 E4.04186
G1 X96.192 Y109.463 E4.08566
G1 X96.194 Y123.4 E5.35294
G1 X89.771 Y123.4 E5.93698
G1 X74.742 Y82.109 E9.93252
G1 X74.666 Y81.934 E9.94987
G1 X74.339 Y81.395 E10.0072
G1 X73.873 Y80.937 E10.06661
G1 X73.333 Y80.62 E10.12355
G1 X72.741 Y80.442 E10.17976
G1 X72.302 Y80.4 E10.21986
G1 X58.998 Y80.4 E11.42959
G1 X58.461 Y80.459 E11.47871
G1 X57.883 Y80.658 E11.5343
G1 X57.315 Y81.027 E11.59589
G1 X56.957 Y81.406 E11.6433
G1 X56.658 Y81.883 E11.69449
G1 X56.449 Y82.527 E11.75606
G1 X56.4 Y82.998 E11.79912
G1 X56.4 Y86 E12.07209
G1 X56.449 Y86.473 E12.11533
G1 X56.658 Y87.117 E12.1769
G1 X57.027 Y87.685 E12.23849
G1 X57.53 Y88.138 E12.30004
G1 X58.023 Y88.4 E12.35081
G1 X51.6 Y88.4 E12.93485
G1 X51.6 Y76.6 E14.00782
G1 X96.192 Y76.6 E18.06255
G1 X96.192 Y90.538 E19.32993
G1 X96.238 Y90.912 E19.36419
G1 X96.401 Y91.317 E19.40389
G1 X96.614 Y91.59 E19.43538
G1 X97.092 Y91.194 F7800
G1 F1800
G1 X97.106 Y91.214 E19.4376
G1 X97.422 Y91.414 E19.47161
G1 X97.754 Y91.475 E19.5023
G1 X100.111 Y91.475 E19.71662
